assets/icons/qvision/exposure_zero.svg

<svg width="24" height="24" viewBox="0 0 24 24" fill="none" xmlns="http://www.w3.org/2000/svg">
<g clip-path="url(#clip0_147_3392)">
<path d="M16.1401 12.5C16.1401 13.5 16.0401 14.35 15.8401 15.05C15.6401 15.75 15.3601 16.32 15.0101 16.75C14.6501 17.19 14.2201 17.5 13.7101 17.7C13.2001 17.9 12.6401 18 12.0101 18C11.3901 18 10.8301 17.9 10.3201 17.7C9.81011 17.5 9.37011 17.19 9.01011 16.75C8.65011 16.31 8.36011 15.74 8.16011 15.05C7.96011 14.35 7.86011 13.5 7.86011 12.5V10.46C7.86011 9.46 7.96011 8.61 8.16011 7.91C8.36011 7.21 8.64011 6.65 9.00011 6.22C9.36011 5.79 9.80011 5.48 10.3101 5.29C10.8101 5.1 11.3801 5 12.0001 5C12.6301 5 13.1901 5.1 13.7001 5.29C14.2101 5.48 14.6501 5.79 15.0101 6.22C15.3701 6.65 15.6501 7.21 15.8501 7.91C16.0501 8.61 16.1501 9.45 16.1501 10.46V12.5H16.1401ZM14.0301 10.14C14.0301 9.5 13.9801 8.96 13.9001 8.52C13.8101 8.08 13.6801 7.73 13.5001 7.46C13.3301 7.19 13.1101 7 12.8601 6.88C12.6101 6.75 12.3201 6.69 12.0001 6.69C11.6801 6.69 11.3901 6.75 11.1401 6.87C10.8901 6.99 10.6701 7.18 10.5001 7.45C10.3301 7.72 10.1901 8.07 10.1001 8.51C10.0101 8.95 9.97011 9.49 9.97011 10.13V12.8C9.97011 13.44 10.0201 13.98 10.1101 14.42C10.2001 14.87 10.3401 15.23 10.5101 15.51C10.6801 15.79 10.9001 15.99 11.1501 16.12C11.4001 16.25 11.6901 16.31 12.0201 16.31C12.3501 16.31 12.6401 16.25 12.8901 16.12C13.1401 15.99 13.3501 15.79 13.5201 15.51C13.6901 15.23 13.8201 14.87 13.9101 14.42C14.0001 13.97 14.0401 13.43 14.0401 12.8V10.14H14.0301Z" fill="#323232"/>
</g>
<defs>
<clipPath id="clip0_147_3392">
<rect width="24" height="24" fill="white"/>
</clipPath>
</defs>
</svg>

<svg xmlns="http://www.w3.org/2000/svg" height="24" viewBox="0 0 24 24" width="24"><path d="M0 0h24v24H0zm0 0h24v24H0zm0 0h24v24H0zm0 0h24v24H0z" fill="none"/><path d="M16.14 12.5c0 1-.1 1.85-.3 2.55-.2.7-.48 1.27-.83 1.7-.36.44-.79.75-1.3.95-.51.2-1.07.3-1.7.3-.62 0-1.18-.1-1.69-.3-.51-.2-.95-.51-1.31-.95-.36-.44-.65-1.01-.85-1.7-.2-.7-.3-1.55-.3-2.55v-2.04c0-1 .1-1.85.3-2.55.2-.7.48-1.26.84-1.69.36-.43.8-.74 1.31-.93C10.81 5.1 11.38 5 12 5c.63 0 1.19.1 1.7.29.51.19.95.5 1.31.93.36.43.64.99.84 1.69.2.7.3 1.54.3 2.55v2.04zm-2.11-2.36c0-.64-.05-1.18-.13-1.62-.09-.44-.22-.79-.4-1.06-.17-.27-.39-.46-.64-.58-.25-.13-.54-.19-.86-.19-.32 0-.61.06-.86.18s-.47.31-.64.58c-.17.27-.31.62-.4 1.06s-.13.98-.13 1.62v2.67c0 .64.05 1.18.14 1.62.09.45.23.81.4 1.09s.39.48.64.61.54.19.87.19c.33 0 .62-.06.87-.19s.46-.33.63-.61c.17-.28.3-.64.39-1.09.09-.45.13-.99.13-1.62v-2.66z"/></svg>
